X: 3974
T: Blacksmith's Schottische, The
R: barndance
M: 4/4
K: Gminor
|:E/|D>GB>A G2 G2|G>Bd>c B2 B>G|A>Bc>B A>D=E>F|1 G>FG>E D2- D3/2:|2 G2 G2 G2- G3/2||
|:g/|e2 c2 G2 c>e|d>BG<B d2- d>B|c>BA>G ^F>D=E<F|1 G>AB>c d2- d3/2:|2 G2 G2 G2- G3/2||

